X:13
T:Reel 13
M:4/4
K:Emin
L:1/8
EF|GEFD EDB,^C|DEFG AFDF|GEFD EDB,A,|B,EEF E2:|B,2|EFGA B2B^c|dB^cA BGAD|EFGA B2ef|gefd edB2|efge fefd|ed^ce dBAF|EFGA BAB^c|dBAF E2|
